img/icons/as-vk.svg

<svg xmlns="http://www.w3.org/2000/svg" width="65" height="65" viewBox="0 0 65 65"><path d="M52.212 64.998H12.788C5.727 64.998.002 59.274.002 52.212V12.788C.002 5.727 5.727.002 12.788.002h39.424c7.062 0 12.786 5.725 12.786 12.786v39.424c0 7.062-5.724 12.786-12.786 12.786zM47.8 33.523c-1.396-1.505-3.255-2.502-5.577-2.99v-.202c1.615-.673 2.881-1.724 3.798-3.155.917-1.429 1.375-3.061 1.375-4.895 0-1.582-.332-2.978-.996-4.19-.665-1.211-1.67-2.178-3.016-2.902a12.09 12.09 0 0 0-4-1.325c-1.422-.21-3.512-.315-6.271-.315H19.839v37.576h15.04c2.608 0 4.757-.235 6.448-.706a13.215 13.215 0 0 0 4.656-2.372c1.195-.925 2.145-2.095 2.852-3.508.707-1.413 1.06-3.054 1.06-4.921 0-2.557-.698-4.589-2.095-6.095zm-10.094 9.981c-.976.421-1.935.648-2.877.681-.942.034-2.642.051-5.098.051h-.504v-9.413h1.741c1.682 0 3.024.013 4.025.038 1.001.025 1.787.147 2.36.366.942.336 1.648.832 2.119 1.489.471.656.707 1.564.707 2.725 0 .909-.198 1.72-.593 2.435-.395.716-1.022 1.258-1.88 1.628zm-1.893-15.697c-.69.32-1.359.497-2.006.53-.648.034-1.779.051-3.394.051h-1.186v-7.95h.656c1.682 0 2.948.013 3.798.038.849.026 1.585.173 2.208.442a2.82 2.82 0 0 1 1.451 1.388c.311.639.467 1.262.467 1.867 0 .825-.143 1.548-.429 2.171-.286.622-.808 1.11-1.565 1.463z" fill="#FFF"/></svg>

<svg version="1.1" xmlns="http://www.w3.org/2000/svg" xmlns:xlink="http://www.w3.org/1999/xlink" width="65" height="65" viewBox="0 0 65 65"><path id="vk" d="M52.212,64.998 C52.212,64.998 12.788,64.998 12.788,64.998 C5.727,64.998 0.002,59.274 0.002,52.212 C0.002,52.212 0.002,12.788 0.002,12.788 C0.002,5.727 5.727,0.002 12.788,0.002 C12.788,0.002 52.212,0.002 52.212,0.002 C59.274,0.002 64.998,5.727 64.998,12.788 C64.998,12.788 64.998,52.212 64.998,52.212 C64.998,59.274 59.274,64.998 52.212,64.998 zM47.800,33.523 C46.404,32.018 44.545,31.021 42.223,30.533 C42.223,30.533 42.223,30.331 42.223,30.331 C43.838,29.658 45.104,28.607 46.021,27.176 C46.938,25.747 47.396,24.115 47.396,22.281 C47.396,20.699 47.064,19.303 46.400,18.091 C45.735,16.880 44.730,15.913 43.384,15.189 C42.139,14.517 40.806,14.075 39.384,13.864 C37.962,13.654 35.872,13.549 33.113,13.549 C33.113,13.549 19.839,13.549 19.839,13.549 L19.839,51.125 C19.839,51.125 34.879,51.125 34.879,51.125 C37.487,51.125 39.636,50.890 41.327,50.419 C43.018,49.948 44.570,49.157 45.983,48.047 C47.178,47.122 48.128,45.952 48.835,44.539 C49.542,43.126 49.895,41.485 49.895,39.618 C49.895,37.061 49.197,35.029 47.800,33.523 zM37.706,43.504 C36.730,43.925 35.771,44.152 34.829,44.185 C33.887,44.219 32.187,44.236 29.731,44.236 C29.731,44.236 29.227,44.236 29.227,44.236 L29.227,34.823 C29.227,34.823 30.968,34.823 30.968,34.823 C32.650,34.823 33.992,34.836 34.993,34.861 C35.994,34.886 36.780,35.008 37.353,35.227 C38.295,35.563 39.001,36.059 39.472,36.716 C39.943,37.372 40.179,38.280 40.179,39.441 C40.179,40.350 39.981,41.161 39.586,41.876 C39.191,42.592 38.564,43.134 37.706,43.504 zM35.813,27.807 C35.123,28.127 34.454,28.304 33.807,28.337 C33.159,28.371 32.028,28.388 30.413,28.388 C30.413,28.388 29.227,28.388 29.227,28.388 L29.227,20.438 C29.227,20.438 29.883,20.438 29.883,20.438 C31.565,20.438 32.831,20.451 33.681,20.476 C34.530,20.502 35.266,20.649 35.889,20.918 C36.545,21.204 37.028,21.667 37.340,22.306 C37.651,22.945 37.807,23.568 37.807,24.173 C37.807,24.998 37.664,25.721 37.378,26.344 C37.092,26.966 36.570,27.454 35.813,27.807 z" fill="#FFFFFF" /></svg>
